X:1
T:Tifty's Annie
M:3/4
L:1/8
K:Ab
 E2| FA E2 E2| FA E2 E3/2 E/2| A3/2 G/2 A2 B2| A2 B2 F3/2- G/2| c3/2 c/2 e2d-c|\
 BA F2 A3/2 F/2| E3/2 E/2 F2 G2| A2 B2||
